dist/svg/u1FA98.svg

<?xml version="1.0" encoding="UTF-8"?><svg id="a" xmlns="http://www.w3.org/2000/svg" viewBox="0 0 40 40"><g><path d="M31.55,34.035H9.017S3.883,12.744,4.655,7.677h31.257c.772,5.067-4.362,26.358-4.362,26.358Z" fill="#a85b25"/><path d="M7.389,4.063h25.789c1.672,0,3.03,1.358,3.03,3.03v.346c0,.358-.291,.649-.649,.649H5.009c-.358,0-.649-.291-.649-.649v-.346c0-1.672,1.358-3.03,3.03-3.03Z" fill="#d5d5d5"/><path d="M9.017,34.035s.531,3.375,3.03,3.375H28.52c2.368,0,3.03-3.375,3.03-3.375H9.017Z" fill="#d5d5d5"/><path d="M30.56,7.677h-1.078l-4.426,13.01-4.145-13.01h-1.078l-4.426,13.011L11.263,7.677h-1.078l-4.181,12.289c.141,.759,.287,1.517,.435,2.269l.014,.07c.068,.345,.137,.688,.205,1.029h27.24c.053-.264,.106-.529,.159-.795,.02-.101,.04-.203,.06-.304,.138-.702,.274-1.408,.407-2.116l-3.963-12.442ZM6.476,22.235l4.228-12.425,3.959,12.425H6.476Zm9.649,0l4.226-12.425,3.96,12.425h-8.187Zm9.648,0l4.228-12.425,3.959,12.425h-8.187Z" fill="#d5d5d5"/></g><rect width="40" height="40" fill="none"/></svg>

<svg id="Layer_1" data-name="Layer 1" xmlns="http://www.w3.org/2000/svg" viewBox="0 0 40 40"><defs><style>.cls-1{fill:#a85b25;}.cls-2{fill:#d5d5d5;}.cls-3{fill:none;}</style></defs><path class="cls-1" d="M31.55,34.035H9.017S3.883,12.744,4.655,7.677H35.912C36.684,12.744,31.55,34.035,31.55,34.035Z"/><path class="cls-2" d="M7.389,4.063H33.178a3.03,3.03,0,0,1,3.03,3.03v.346a.649.649,0,0,1-.649.649H5.009a.649.649,0,0,1-.649-.649V7.093A3.03,3.03,0,0,1,7.389,4.063Z"/><path class="cls-2" d="M9.017,34.035s.531,3.375,3.03,3.375H28.52c2.369,0,3.03-3.375,3.03-3.375Z"/><path class="cls-2" d="M30.56,7.677H29.482l-4.426,13.01L20.911,7.677H19.833L15.407,20.688,11.263,7.677H10.185L6,19.966c.142.759.287,1.517.435,2.269l.014.071q.1.517.206,1.029H33.9c.053-.265.107-.529.159-.8l.06-.3c.138-.7.274-1.408.407-2.116ZM6.476,22.235,10.7,9.811l3.959,12.424Zm9.65,0L20.352,9.811l3.96,12.424Zm9.648,0L30,9.811l3.96,12.424Z"/><rect class="cls-3" width="40" height="40"/></svg>
